X: 190
T: Lady Carrick's Delight
B: 204 Favourite Country Dances
N: Published by Straight & Skillern, London ca.1775
F: http://imslp.org/wiki/204_Favourite_Country_Dances_(Various) p.95 #190
Z: 2014 John Chambers <jc:trillian.mit.edu>
M: C|
L: 1/8
K: D
% - - - - - - - - - - - - - - - - - - - - - - - - -
|:\
defg abaf | gfed eAAG |\
FGAB gfed | faec d2D2 :|
|:\
AGFG A2d2 | AGFG A2d2 |\
abaf gfed | faec d2D2 :|
% - - - - - - - - - - - - - - - - - - - - - - - - -
%%begintext align
%% Right hands across at top .| left hands back
%% again .|. Cast off one Cu. & turn your Partner :|.
%% lead thro' the bott: & cast up :|: swing Corners &
%% Partners .|| hands 6 round .||. Right & Left :||:
%%endtext

%%sep 1 1 500
%%sep 1 1 500
